Numix-Circle/48x48/apps/qgis.svg

<?xml version="1.0" encoding="UTF-8" standalone="no"?>
<svg
   xmlns:dc="http://purl.org/dc/elements/1.1/"
   xmlns:cc="http://creativecommons.org/ns#"
   xmlns:rdf="http://www.w3.org/1999/02/22-rdf-syntax-ns#"
   xmlns:svg="http://www.w3.org/2000/svg"
   xmlns="http://www.w3.org/2000/svg"
   xmlns:xlink="http://www.w3.org/1999/xlink"
   xmlns:sodipodi="http://sodipodi.sourceforge.net/DTD/sodipodi-0.dtd"
   xmlns:inkscape="http://www.inkscape.org/namespaces/inkscape"
   viewBox="0 0 48 48"
   id="svg2"
   version="1.1"
   inkscape:version="0.48.4 r9939"
   width="100%"
   height="100%"
   sodipodi:docname="qgis.svg">
  <metadata
     id="metadata111">
    <rdf:RDF>
      <cc:Work
         rdf:about="">
        <dc:format>image/svg+xml</dc:format>
        <dc:type
           rdf:resource="http://purl.org/dc/dcmitype/StillImage" />
      </cc:Work>
    </rdf:RDF>
  </metadata>
  <sodipodi:namedview
     pagecolor="#ffffff"
     bordercolor="#666666"
     borderopacity="1"
     objecttolerance="10"
     gridtolerance="10"
     guidetolerance="10"
     inkscape:pageopacity="0"
     inkscape:pageshadow="2"
     inkscape:window-width="1280"
     inkscape:window-height="960"
     id="namedview109"
     showgrid="false"
     inkscape:zoom="4.9166667"
     inkscape:cx="-39.688199"
     inkscape:cy="38.294009"
     inkscape:window-x="0"
     inkscape:window-y="0"
     inkscape:window-maximized="1"
     inkscape:current-layer="svg2" />
  <defs
     id="defs4">
    <linearGradient
       id="linearGradient3764"
       x1="1"
       x2="47"
       gradientUnits="userSpaceOnUse"
       gradientTransform="matrix(0,-1,1,0,-1.5e-6,47.999998)">
      <stop
         stop-color="#c5c5c5"
         stop-opacity="1"
         id="stop7" />
      <stop
         offset="1"
         stop-color="#cfcfcf"
         stop-opacity="1"
         id="stop9" />
    </linearGradient>
    <clipPath
       id="clipPath-175944035">
      <g
         transform="translate(0,-1004.3622)"
         id="g12">
        <path
           d="m -24 13 c 0 1.105 -0.672 2 -1.5 2 -0.828 0 -1.5 -0.895 -1.5 -2 0 -1.105 0.672 -2 1.5 -2 0.828 0 1.5 0.895 1.5 2 z"
           transform="matrix(15.333333,0,0,11.5,414.99999,878.8622)"
           fill="#1890d0"
           id="path14" />
      </g>
    </clipPath>
    <clipPath
       id="clipPath-185140471">
      <g
         transform="translate(0,-1004.3622)"
         id="g17">
        <path
           d="m -24 13 c 0 1.105 -0.672 2 -1.5 2 -0.828 0 -1.5 -0.895 -1.5 -2 0 -1.105 0.672 -2 1.5 -2 0.828 0 1.5 0.895 1.5 2 z"
           transform="matrix(15.333333,0,0,11.5,414.99999,878.8622)"
           fill="#1890d0"
           id="path19" />
      </g>
    </clipPath>
    <linearGradient
       id="linear0"
       gradientUnits="userSpaceOnUse"
       x1="5.08"
       x2="8.467"
       gradientTransform="scale(3.543307,3.543307)">
      <stop
         stop-color="#3cb943"
         stop-opacity="1"
         id="stop22" />
      <stop
         offset="1"
         stop-color="#3cb943"
         stop-opacity="0"
         id="stop24" />
    </linearGradient>
    <linearGradient
       id="linear1"
       gradientUnits="userSpaceOnUse"
       x1="4.798"
       x2="9.596"
       gradientTransform="scale(3.543307,3.543307)">
      <stop
         stop-color="#868bec"
         stop-opacity="1"
         id="stop27" />
      <stop
         offset="1"
         stop-color="#868bec"
         stop-opacity="0"
         id="stop29" />
    </linearGradient>
    <linearGradient
       id="linearGradient31"
       gradientUnits="userSpaceOnUse"
       x1="5.08"
       x2="8.467"
       gradientTransform="matrix(3.543307,0,0,3.543307,0,0)">
      <stop
         stop-color="#3cb943"
         stop-opacity="1"
         id="stop33" />
      <stop
         offset="1"
         stop-color="#3cb943"
         stop-opacity="0"
         id="stop35" />
    </linearGradient>
    <linearGradient
       id="linearGradient37"
       gradientUnits="userSpaceOnUse"
       x1="4.798"
       x2="9.596"
       gradientTransform="matrix(3.543307,0,0,3.543307,0,0)">
      <stop
         stop-color="#868bec"
         stop-opacity="1"
         id="stop39" />
      <stop
         offset="1"
         stop-color="#868bec"
         stop-opacity="0"
         id="stop41" />
    </linearGradient>
    <linearGradient
       inkscape:collect="always"
       xlink:href="#linear0"
       id="linearGradient3098"
       gradientUnits="userSpaceOnUse"
       gradientTransform="scale(3.543307,3.543307)"
       x1="5.08"
       x2="8.467" />
    <linearGradient
       inkscape:collect="always"
       xlink:href="#linear1"
       id="linearGradient3100"
       gradientUnits="userSpaceOnUse"
       gradientTransform="scale(3.543307,3.543307)"
       x1="4.798"
       x2="9.596" />
    <linearGradient
       inkscape:collect="always"
       xlink:href="#linear0"
       id="linearGradient3111"
       gradientUnits="userSpaceOnUse"
       gradientTransform="scale(3.543307,3.543307)"
       x1="5.08"
       x2="8.467" />
    <linearGradient
       inkscape:collect="always"
       xlink:href="#linear1"
       id="linearGradient3113"
       gradientUnits="userSpaceOnUse"
       gradientTransform="scale(3.543307,3.543307)"
       x1="4.798"
       x2="9.596" />
    <linearGradient
       inkscape:collect="always"
       xlink:href="#linear1"
       id="linearGradient3122"
       gradientUnits="userSpaceOnUse"
       gradientTransform="scale(3.543307,3.543307)"
       x1="4.798"
       x2="9.596" />
    <linearGradient
       inkscape:collect="always"
       xlink:href="#linear0"
       id="linearGradient3125"
       gradientUnits="userSpaceOnUse"
       gradientTransform="scale(3.543307,3.543307)"
       x1="5.08"
       x2="8.467" />
    <linearGradient
       inkscape:collect="always"
       xlink:href="#linearGradient3764"
       id="linearGradient3166"
       gradientUnits="userSpaceOnUse"
       gradientTransform="matrix(0,-1,1,0,-1.5e-6,47.999998)"
       x1="1"
       x2="47" />
    <linearGradient
       inkscape:collect="always"
       xlink:href="#linearGradient3764"
       id="linearGradient3169"
       gradientUnits="userSpaceOnUse"
       gradientTransform="matrix(0,-1,1,0,-1.5e-6,47.999998)"
       x1="1"
       x2="47" />
    <linearGradient
       inkscape:collect="always"
       xlink:href="#linear0"
       id="linearGradient3171"
       gradientUnits="userSpaceOnUse"
       gradientTransform="scale(3.543307,3.543307)"
       x1="5.08"
       x2="8.467" />
    <linearGradient
       inkscape:collect="always"
       xlink:href="#linearGradient3764"
       id="linearGradient3184"
       gradientUnits="userSpaceOnUse"
       gradientTransform="matrix(0,-1,1,0,-1.5e-6,47.999998)"
       x1="1"
       x2="47" />
    <linearGradient
       inkscape:collect="always"
       xlink:href="#linearGradient3764"
       id="linearGradient3187"
       gradientUnits="userSpaceOnUse"
       gradientTransform="matrix(0,-1,1,0,-1.5e-6,47.999998)"
       x1="1"
       x2="47" />
    <linearGradient
       inkscape:collect="always"
       xlink:href="#linear1"
       id="linearGradient3196"
       gradientUnits="userSpaceOnUse"
       gradientTransform="scale(3.543307,3.543307)"
       x1="4.798"
       x2="9.596" />
    <linearGradient
       inkscape:collect="always"
       xlink:href="#linear0"
       id="linearGradient3198"
       gradientUnits="userSpaceOnUse"
       gradientTransform="scale(3.543307,3.543307)"
       x1="5.08"
       x2="8.467" />
    <linearGradient
       inkscape:collect="always"
       xlink:href="#linearGradient3764"
       id="linearGradient3213"
       gradientUnits="userSpaceOnUse"
       gradientTransform="matrix(0,-1,1,0,-1.5e-6,47.999998)"
       x1="1"
       x2="47" />
    <linearGradient
       inkscape:collect="always"
       xlink:href="#linearGradient3764"
       id="linearGradient3221"
       gradientUnits="userSpaceOnUse"
       gradientTransform="matrix(0,-1,1,0,-1.5e-6,47.999998)"
       x1="1"
       x2="47" />
    <linearGradient
       inkscape:collect="always"
       xlink:href="#linearGradient3764"
       id="linearGradient3224"
       gradientUnits="userSpaceOnUse"
       gradientTransform="matrix(0,-1,1,0,-1.5e-6,47.999998)"
       x1="1"
       x2="47" />
    <linearGradient
       inkscape:collect="always"
       xlink:href="#linearGradient3764"
       id="linearGradient3227"
       gradientUnits="userSpaceOnUse"
       gradientTransform="matrix(0,-1,1,0,-1.5e-6,47.999998)"
       x1="1"
       x2="47" />
    <linearGradient
       inkscape:collect="always"
       xlink:href="#linearGradient3764"
       id="linearGradient3230"
       gradientUnits="userSpaceOnUse"
       gradientTransform="matrix(0,-1,1,0,-1.5e-6,47.999998)"
       x1="1"
       x2="47" />
    <linearGradient
       inkscape:collect="always"
       xlink:href="#linearGradient3764"
       id="linearGradient3241"
       gradientUnits="userSpaceOnUse"
       gradientTransform="matrix(0,-1,1,0,-1.5e-6,47.999998)"
       x1="1"
       x2="47" />
    <linearGradient
       inkscape:collect="always"
       xlink:href="#linearGradient3764"
       id="linearGradient3244"
       gradientUnits="userSpaceOnUse"
       gradientTransform="matrix(0,-1,1,0,-1.5e-6,47.999998)"
       x1="1"
       x2="47" />
    <linearGradient
       inkscape:collect="always"
       xlink:href="#linearGradient3764"
       id="linearGradient4092"
       gradientUnits="userSpaceOnUse"
       gradientTransform="matrix(0,-1,1,0,-1.5e-6,47.999998)"
       x1="1"
       x2="47" />
    <linearGradient
       inkscape:collect="always"
       xlink:href="#linear0"
       id="linearGradient4096"
       gradientUnits="userSpaceOnUse"
       gradientTransform="scale(3.543307,3.543307)"
       x1="5.08"
       x2="8.467" />
  </defs>
  <g
     id="g43">
    <path
       d="m 36.31 5 c 5.859 4.062 9.688 10.831 9.688 18.5 c 0 12.426 -10.07 22.5 -22.5 22.5 c -7.669 0 -14.438 -3.828 -18.5 -9.688 c 1.037 1.822 2.306 3.499 3.781 4.969 c 4.085 3.712 9.514 5.969 15.469 5.969 c 12.703 0 23 -10.298 23 -23 c 0 -5.954 -2.256 -11.384 -5.969 -15.469 c -1.469 -1.475 -3.147 -2.744 -4.969 -3.781 z m 4.969 3.781 c 3.854 4.113 6.219 9.637 6.219 15.719 c 0 12.703 -10.297 23 -23 23 c -6.081 0 -11.606 -2.364 -15.719 -6.219 c 4.16 4.144 9.883 6.719 16.219 6.719 c 12.703 0 23 -10.298 23 -23 c 0 -6.335 -2.575 -12.06 -6.719 -16.219 z"
       opacity="0.05"
       id="path45" />
    <path
       d="m 41.28 8.781 c 3.712 4.085 5.969 9.514 5.969 15.469 c 0 12.703 -10.297 23 -23 23 c -5.954 0 -11.384 -2.256 -15.469 -5.969 c 4.113 3.854 9.637 6.219 15.719 6.219 c 12.703 0 23 -10.298 23 -23 c 0 -6.081 -2.364 -11.606 -6.219 -15.719 z"
       opacity="0.1"
       id="path47" />
    <path
       d="m 31.25 2.375 c 8.615 3.154 14.75 11.417 14.75 21.13 c 0 12.426 -10.07 22.5 -22.5 22.5 c -9.708 0 -17.971 -6.135 -21.12 -14.75 a 23 23 0 0 0 44.875 -7 a 23 23 0 0 0 -16 -21.875 z"
       opacity="0.2"
       id="path49" />
  </g>
  <path
     style="fill:url(#linearGradient3244);fill-opacity:1"
     d="M 24 1 C 20.667456 1 17.515137 1.7251169 14.65625 3 L 14.65625 45 C 17.515137 46.274883 20.667456 47 24 47 C 36.703 47 47 36.703 47 24 C 47 11.297 36.703 1 24 1 z "
     id="path53" />
  <g
     id="g55" />
  <path
     style="fill:url(#linearGradient3198);stroke:none"
     d="M 24 1 C 11.297 1 1 11.297 1 24 C 1 31.113882 4.2397588 37.468651 9.3125 41.6875 L 25.375 29.125 L 33.15625 38.40625 L 33.15625 2.90625 C 30.347134 1.6839148 27.259132 1 24 1 z M 12.5 43.90625 C 12.996972 44.193616 13.511672 44.4684 14.03125 44.71875 C 13.51311 44.468245 12.995684 44.19361 12.5 43.90625 z M 14.25 44.8125 C 14.7298 45.037657 15.221544 45.245212 15.71875 45.4375 C 15.222255 45.244775 14.729116 45.038061 14.25 44.8125 z M 33.15625 45.0625 C 32.947493 45.15343 32.743176 45.258859 32.53125 45.34375 C 32.739896 45.260076 32.950553 45.183255 33.15625 45.09375 L 33.15625 45.0625 z M 32.53125 45.34375 C 32.03352 45.543126 31.514172 45.741253 31 45.90625 C 31.520041 45.739369 32.02755 45.545752 32.53125 45.34375 z M 16.375 45.6875 C 16.888899 45.868127 17.407631 46.043076 17.9375 46.1875 C 17.40153 46.041252 16.894568 45.870862 16.375 45.6875 z M 17.9375 46.1875 C 18.579653 46.362528 19.243027 46.505529 19.90625 46.625 C 19.242461 46.505453 18.580048 46.362829 17.9375 46.1875 z M 19.90625 46.625 C 20.483409 46.728967 21.064986 46.814958 21.65625 46.875 C 21.070004 46.815239 20.478471 46.728056 19.90625 46.625 z M 22.1875 46.90625 C 22.787327 46.953149 23.388127 47 24 47 C 23.385869 47 22.789268 46.95359 22.1875 46.90625 z "
     id="rect89" />
  <path
     style="fill:url(#linearGradient3122);fill-rule:nonzero;stroke:none"
     d="M 25.375 29.125 L 9.3125 41.6875 C 13.297968 45.002096 18.410882 47 24 47 C 28.821293 47 33.303301 45.5039 37 42.96875 L 25.375 29.125 z "
     id="path91" />
  <path
     style="fill:#ffe68e;fill-opacity:1;fill-rule:nonzero;stroke:none"
     d="M 43 11.0625 L 7.4375 39.9375 C 8.3894188 40.926447 9.4164638 41.849823 10.53125 42.65625 L 44.9375 14.5 C 44.391838 13.299853 43.735202 12.141675 43 11.0625 z "
     id="path93" />
  <path
     style="fill:#ffe68e;fill-opacity:1;fill-rule:nonzero;stroke:none"
     d="M 26.96875 27.8125 L 24.34375 30.3125 L 35.5625 43.875 C 36.511684 43.322331 37.39343 42.709628 38.25 42.03125 L 26.96875 27.8125 z "
     id="path95" />
  <path
     style="fill:#ff6f03;fill-opacity:1;fill-rule:nonzero;stroke:none"
     inkscape:connector-curvature="0"
     id="path97"
     d="m 17.965,23 13.773,0 0,4 -13.773,0 m 0,-4" />
  <path
     style="fill:#ff2d5b;fill-opacity:1;fill-rule:nonzero;stroke:none"
     inkscape:connector-curvature="0"
     id="path99"
     d="m 31,23 0,4 2.438,0 c 0,0 0.563,-0.324 0.563,-2 0,-1.609 -0.621,-1.996 -0.621,-1.996 l -2.375,0 M 31.001,23" />
  <path
     style="fill:#ffc13d;fill-opacity:1;fill-rule:nonzero;stroke:none"
     inkscape:connector-curvature="0"
     id="path101"
     d="m 18,23 -4,1.996 4,2 0,-4 M 18,23" />
  <path
     style="fill:#000000;fill-opacity:1;fill-rule:nonzero;stroke:none;opacity:0.1"
     d="M 43.75 12.25 L 29.3125 24 L 19 24 L 18.96875 24 L 17 24.96875 L 15 26 L 17 27.03125 L 18.96875 28 L 19 28 L 24.375 28 L 8.4375 40.9375 C 8.7193827 41.196569 9.0179849 41.44256 9.3125 41.6875 L 14.65625 37.5 L 14.65625 41.09375 L 25.84375 31.9375 L 35.6875 43.8125 C 36.638106 43.251316 37.518569 42.625174 38.375 41.9375 L 28.625 29.65625 L 30.65625 28 L 32.75 28 L 34.4375 28 C 34.4375 28 34.47847 27.9941 34.53125 27.9375 C 34.689594 27.767812 35 27.257 35 26 C 35 25.346589 34.9029 24.93128 34.78125 24.625 L 45.5 15.84375 C 45.020434 14.581679 44.434311 13.394503 43.75 12.25 z "
     id="use3277" />
  <path
     style="fill:#2d2d2d;fill-opacity:1;fill-rule:nonzero;stroke:none"
     inkscape:connector-curvature="0"
     id="path103"
     d="m 16,23.98 -1.996,1.016 1.996,1.02 m 0,-2.035" />
  <use
     x="0"
     y="0"
     xlink:href="#path91"
     id="use3247" />
  <use
     x="0"
     y="0"
     xlink:href="#path93"
     id="use3249" />
  <g
     id="g105">
    <path
       d="m 40.03 7.531 c 3.712 4.084 5.969 9.514 5.969 15.469 0 12.703 -10.297 23 -23 23 c -5.954 0 -11.384 -2.256 -15.469 -5.969 4.178 4.291 10.01 6.969 16.469 6.969 c 12.703 0 23 -10.298 23 -23 0 -6.462 -2.677 -12.291 -6.969 -16.469 z"
       id="path107"
       opacity="0.1" />
  </g>
  <use
     x="0"
     y="0"
     xlink:href="#path95"
     id="use3251" />
  <use
     x="0"
     y="0"
     xlink:href="#path97"
     id="use3253" />
  <use
     x="0"
     y="0"
     xlink:href="#path99"
     id="use3255" />
  <use
     x="0"
     y="0"
     xlink:href="#path101"
     id="use3257" />
  <use
     x="0"
     y="0"
     xlink:href="#path103"
     id="use3259" />
</svg>

<svg xmlns="http://www.w3.org/2000/svg" xmlns:xlink="http://www.w3.org/1999/xlink" viewBox="0 0 48 48"><defs><clipPath><g transform="translate(0,-1004.3622)"><path d="m -24 13 c 0 1.105 -0.672 2 -1.5 2 -0.828 0 -1.5 -0.895 -1.5 -2 0 -1.105 0.672 -2 1.5 -2 0.828 0 1.5 0.895 1.5 2 z" transform="matrix(15.333333,0,0,11.5,414.99999,878.8622)" fill="#1890d0"/></g></clipPath><clipPath><g transform="translate(0,-1004.3622)"><path d="m -24 13 c 0 1.105 -0.672 2 -1.5 2 -0.828 0 -1.5 -0.895 -1.5 -2 0 -1.105 0.672 -2 1.5 -2 0.828 0 1.5 0.895 1.5 2 z" transform="matrix(15.333333,0,0,11.5,414.99999,878.8622)" fill="#1890d0"/></g></clipPath><linearGradient id="linearGradient3122" gradientUnits="userSpaceOnUse" gradientTransform="scale(3.543307,3.543307)" x1="4.798" x2="9.596"><stop stop-color="#868bec" stop-opacity="1"/><stop offset="1" stop-color="#868bec" stop-opacity="0"/></linearGradient><linearGradient id="linearGradient3198" gradientUnits="userSpaceOnUse" gradientTransform="scale(3.543307,3.543307)" x1="5.08" x2="8.467"><stop stop-color="#3cb943" stop-opacity="1"/><stop offset="1" stop-color="#3cb943" stop-opacity="0"/></linearGradient><linearGradient id="linearGradient3244" gradientUnits="userSpaceOnUse" gradientTransform="matrix(0,-1,1,0,-1.5e-6,47.999998)" x1="1" x2="47"><stop stop-color="#c5c5c5" stop-opacity="1"/><stop offset="1" stop-color="#cfcfcf" stop-opacity="1"/></linearGradient></defs><g><path d="m 36.31 5 c 5.859 4.062 9.688 10.831 9.688 18.5 c 0 12.426 -10.07 22.5 -22.5 22.5 c -7.669 0 -14.438 -3.828 -18.5 -9.688 c 1.037 1.822 2.306 3.499 3.781 4.969 c 4.085 3.712 9.514 5.969 15.469 5.969 c 12.703 0 23 -10.298 23 -23 c 0 -5.954 -2.256 -11.384 -5.969 -15.469 c -1.469 -1.475 -3.147 -2.744 -4.969 -3.781 z m 4.969 3.781 c 3.854 4.113 6.219 9.637 6.219 15.719 c 0 12.703 -10.297 23 -23 23 c -6.081 0 -11.606 -2.364 -15.719 -6.219 c 4.16 4.144 9.883 6.719 16.219 6.719 c 12.703 0 23 -10.298 23 -23 c 0 -6.335 -2.575 -12.06 -6.719 -16.219 z" opacity="0.05"/><path d="m 41.28 8.781 c 3.712 4.085 5.969 9.514 5.969 15.469 c 0 12.703 -10.297 23 -23 23 c -5.954 0 -11.384 -2.256 -15.469 -5.969 c 4.113 3.854 9.637 6.219 15.719 6.219 c 12.703 0 23 -10.298 23 -23 c 0 -6.081 -2.364 -11.606 -6.219 -15.719 z" opacity="0.1"/><path d="m 31.25 2.375 c 8.615 3.154 14.75 11.417 14.75 21.13 c 0 12.426 -10.07 22.5 -22.5 22.5 c -9.708 0 -17.971 -6.135 -21.12 -14.75 a 23 23 0 0 0 44.875 -7 a 23 23 0 0 0 -16 -21.875 z" opacity="0.2"/></g><path d="m 24 1 c -3.333 0 -6.485 0.725 -9.344 2 l 0 42 c 2.859 1.275 6.01 2 9.344 2 c 12.703 0 23 -10.297 23 -23 c 0 -12.703 -10.297 -23 -23 -23 z" fill="url(#linearGradient3244)" fill-opacity="1"/><path d="m 24 1 c -12.703 0 -23 10.297 -23 23 c 0 7.114 3.24 13.469 8.313 17.688 l 16.06 -12.563 l 7.781 9.281 l 0 -35.5 c -2.809 -1.222 -5.897 -1.906 -9.156 -1.906 z m -11.5 42.906 c 0.497 0.287 1.012 0.562 1.531 0.813 c -0.518 -0.251 -1.036 -0.525 -1.531 -0.813 z m 1.75 0.906 c 0.48 0.225 0.972 0.433 1.469 0.625 c -0.496 -0.193 -0.99 -0.399 -1.469 -0.625 z m 18.906 0.25 c -0.209 0.091 -0.413 0.196 -0.625 0.281 c 0.209 -0.084 0.419 -0.16 0.625 -0.25 l 0 -0.031 z m -0.625 0.281 c -0.498 0.199 -1.017 0.398 -1.531 0.563 c 0.52 -0.167 1.028 -0.36 1.531 -0.563 z m -16.16 0.344 c 0.514 0.181 1.033 0.356 1.563 0.5 c -0.536 -0.146 -1.043 -0.317 -1.563 -0.5 z m 1.563 0.5 c 0.642 0.175 1.306 0.318 1.969 0.438 c -0.664 -0.12 -1.326 -0.262 -1.969 -0.438 z m 1.969 0.438 c 0.577 0.104 1.159 0.19 1.75 0.25 c -0.586 -0.06 -1.178 -0.147 -1.75 -0.25 z m 2.281 0.281 c 0.6 0.047 1.201 0.094 1.813 0.094 c -0.614 0 -1.211 -0.046 -1.813 -0.094 z" fill="url(#linearGradient3198)" stroke="none"/><path d="m 25.375 29.13 l -16.06 12.563 c 3.985 3.315 9.1 5.313 14.688 5.313 c 4.821 0 9.303 -1.496 13 -4.03 l -11.625 -13.844 z" id="path91" fill="url(#linearGradient3122)" fill-rule="nonzero" stroke="none"/><path d="m 43 11.06 l -35.563 28.875 c 0.952 0.989 1.979 1.912 3.094 2.719 l 34.406 -28.16 c -0.546 -1.2 -1.202 -2.358 -1.938 -3.438 z" id="path93" fill="#ffe68e" fill-rule="nonzero" stroke="none" fill-opacity="1"/><path d="m 26.969 27.813 l -2.625 2.5 l 11.219 13.563 c 0.949 -0.553 1.831 -1.165 2.688 -1.844 l -11.281 -14.219 z" id="path95" fill="#ffe68e" fill-rule="nonzero" stroke="none" fill-opacity="1"/><path id="path97" d="m 17.965 23 13.773 0 0 4 -13.773 0 m 0 -4" fill="#ff6f03" fill-rule="nonzero" stroke="none" fill-opacity="1"/><path id="path99" d="m 31,23 0,4 2.438,0 c 0,0 0.563,-0.324 0.563,-2 0,-1.609 -0.621,-1.996 -0.621,-1.996 l -2.375,0 M 31.001,23" fill="#ff2d5b" fill-rule="nonzero" stroke="none" fill-opacity="1"/><path id="path101" d="m 18,23 -4,1.996 4,2 0,-4 M 18,23" fill="#ffc13d" fill-rule="nonzero" stroke="none" fill-opacity="1"/><path d="m 43.75 12.25 l -14.438 11.75 l -10.313 0 l -0.031 0 l -1.969 0.969 l -2 1.031 l 2 1.031 l 1.969 0.969 l 0.031 0 l 5.375 0 l -15.938 12.938 c 0.282 0.259 0.58 0.505 0.875 0.75 l 5.344 -4.188 l 0 3.594 l 11.188 -9.156 l 9.844 11.875 c 0.951 -0.561 1.831 -1.187 2.688 -1.875 l -9.75 -12.281 l 2.031 -1.656 l 2.094 0 l 1.688 0 c 0 0 0.041 -0.006 0.094 -0.063 c 0.158 -0.17 0.469 -0.68 0.469 -1.938 c 0 -0.653 -0.097 -1.069 -0.219 -1.375 l 10.719 -8.781 c -0.48 -1.262 -1.066 -2.449 -1.75 -3.594 z" opacity="0.1" fill="#000" fill-rule="nonzero" stroke="none" fill-opacity="1"/><path id="path103" d="m 16 23.98 -1.996 1.016 1.996 1.02 m 0 -2.035" fill="#2d2d2d" fill-rule="nonzero" stroke="none" fill-opacity="1"/><use xlink:href="#path91"/><use xlink:href="#path93"/><g><path d="m 40.03 7.531 c 3.712 4.084 5.969 9.514 5.969 15.469 0 12.703 -10.297 23 -23 23 c -5.954 0 -11.384 -2.256 -15.469 -5.969 4.178 4.291 10.01 6.969 16.469 6.969 c 12.703 0 23 -10.298 23 -23 0 -6.462 -2.677 -12.291 -6.969 -16.469 z" opacity="0.1"/></g><use xlink:href="#path95"/><use xlink:href="#path97"/><use xlink:href="#path99"/><use xlink:href="#path101"/><use xlink:href="#path103"/></svg>
